docs/img/scene.svg

<svg width="1903" height="960" fill="none" xmlns="http://www.w3.org/2000/svg"><g class="scene-dot"><path d="M677.5 634l88.5 60.5h100" stroke="#F60"/><g class="waves" stroke="#F60"><circle cx="677.5" cy="633.5" r="24"/><circle cx="677.5" cy="633.5" r="24"/><circle cx="677.5" cy="633.5" r="24"/></g><g class="active-circle"><circle cx="677.5" cy="633.5" r="29.5" fill="#F60"/><g clip-path="url(#clip0)" stroke="#fff" stroke-miterlimit="22.93"><path d="M670.556 624.439c.868 0 1.717.251 2.438.721a4.303 4.303 0 0 1 1.617 1.921c.332.782.419 1.643.249 2.473a4.24 4.24 0 0 1-1.201 2.192 4.415 4.415 0 0 1-2.247 1.172 4.495 4.495 0 0 1-2.536-.244 4.368 4.368 0 0 1-1.969-1.576 4.21 4.21 0 0 1-.74-2.379 4.235 4.235 0 0 1 1.288-3.025 4.449 4.449 0 0 1 3.101-1.255v0z" stroke-width="1.42"/><path d="M670.556 625.711c.61 0 1.206.176 1.713.507.508.331.903.8 1.136 1.35.234.55.295 1.155.176 1.738a2.983 2.983 0 0 1-.844 1.54 3.11 3.11 0 0 1-1.579.824 3.162 3.162 0 0 1-1.782-.171 3.068 3.068 0 0 1-1.384-1.108 2.958 2.958 0 0 1-.52-1.672 2.975 2.975 0 0 1 .905-2.125 3.132 3.132 0 0 1 2.179-.883v0z" stroke-width=".71"/><path d="M670.556 627.212c.306-.001.605.086.86.251s.454.4.572.675c.118.275.15.579.091.871a1.5 1.5 0 0 1-.422.774 1.579 1.579 0 0 1-1.685.329 1.54 1.54 0 0 1-.694-.555 1.48 1.48 0 0 1 .189-1.901c.289-.283.68-.442 1.089-.444v0z" stroke-width=".71"/><path d="M666.838 632.963a4.476 4.476 0 0 1 2.445.72 4.309 4.309 0 0 1 1.621 1.924c.334.783.421 1.646.252 2.478a4.26 4.26 0 0 1-1.203 2.196 4.43 4.43 0 0 1-2.252 1.174 4.494 4.494 0 0 1-2.541-.246 4.369 4.369 0 0 1-1.972-1.581 4.203 4.203 0 0 1-.738-2.384c0-1.136.462-2.224 1.285-3.027a4.446 4.446 0 0 1 3.103-1.254v0z" stroke-width="1.42"/><path d="M666.838 634.235a3.148 3.148 0 0 1 1.72.506c.509.331.906.801 1.141 1.352.235.552.296 1.158.177 1.743a2.987 2.987 0 0 1-.846 1.545c-.433.422-.984.71-1.584.826-.6.116-1.222.056-1.787-.173a3.085 3.085 0 0 1-1.387-1.113 2.967 2.967 0 0 1 .386-3.804 3.119 3.119 0 0 1 2.18-.882v0z" stroke-width=".71"/><path d="M666.838 635.736c.306 0 .605.089.859.254.254.166.452.401.569.677.117.275.148.578.088.871-.06.292-.207.561-.423.771a1.554 1.554 0 0 1-.791.413c-.3.058-.611.028-.893-.086a1.532 1.532 0 0 1-.693-.555 1.48 1.48 0 0 1 .19-1.905 1.578 1.578 0 0 1 1.094-.44v0z" stroke-width=".71"/><path d="M676.325 632.963a4.47 4.47 0 0 1 2.444.72 4.305 4.305 0 0 1 1.622 1.924c.333.783.421 1.646.252 2.478a4.26 4.26 0 0 1-1.204 2.196 4.427 4.427 0 0 1-2.251 1.174 4.493 4.493 0 0 1-2.541-.246 4.364 4.364 0 0 1-1.972-1.581 4.203 4.203 0 0 1-.738-2.384c0-1.136.462-2.224 1.285-3.027a4.444 4.444 0 0 1 3.103-1.254v0z" stroke-width="1.42"/><path d="M676.325 634.235a3.15 3.15 0 0 1 1.72.506c.509.331.906.801 1.141 1.352.234.552.296 1.158.177 1.743a2.994 2.994 0 0 1-.846 1.545c-.433.422-.984.71-1.584.826-.6.116-1.222.056-1.787-.173a3.08 3.08 0 0 1-1.387-1.113 2.967 2.967 0 0 1 .385-3.804 3.123 3.123 0 0 1 2.181-.882v0z" stroke-width=".71"/><path d="M676.325 635.736c.306 0 .605.089.859.255.255.166.453.402.57.677.116.276.147.579.086.872a1.5 1.5 0 0 1-.424.772 1.568 1.568 0 0 1-1.686.322 1.538 1.538 0 0 1-.693-.557 1.485 1.485 0 0 1 .196-1.903c.144-.14.314-.25.501-.325.188-.075.389-.113.591-.113v0z" stroke-width=".71"/><path d="M670.556 624.439h12.875M668.954 633h19.201m-21.316 8.524h21.316m0-8.524c1.164 0 2.281.451 3.104 1.254a4.227 4.227 0 0 1 1.285 3.027 4.229 4.229 0 0 1-1.285 3.027 4.45 4.45 0 0 1-3.104 1.253m-4.724-17.122c1.164 0 2.28.451 3.103 1.253a4.23 4.23 0 0 1 1.286 3.027 4.228 4.228 0 0 1-1.286 3.027 4.444 4.444 0 0 1-3.103 1.254" stroke-width="1.42"/><path d="M673.855 625.896h12.679m-12.615 5.405h12.805m-7.333 2.885h11.836m-11.298 5.349h12.007" stroke-width=".71"/></g></g><g class="base-circle"><foreignObject x="653" y="610" width="49" height="49" class="highlight"><div/></foreignObject><circle cx="677.5" cy="633.5" r="24.5" fill="#fff" fill-opacity=".1"/><circle cx="677.5" cy="633.5" r="24" stroke="#fff" stroke-opacity=".6"/><path fill="#fff" d="M675 630h6v6h-6z"/></g><foreignObject class="text" width="200" height="200" x="775" y="720"><div class="text__title">Натуральная</div><div class="text__text">100% аналог массива, полная имитация фактуры и текстуры натуральных материалов</div></foreignObject></g><circle cx="1541.5" cy="236.5" r="24.5" fill="#fff" fill-opacity=".1"/><circle cx="1541.5" cy="236.5" r="24" stroke="#fff" stroke-opacity=".6"/><path fill="#fff" d="M1541 232l4.232 4.232-4.232 4.232-4.232-4.232z"/><circle cx="1663.5" cy="779.5" r="24.5" fill="#fff" fill-opacity=".1"/><circle cx="1663.5" cy="779.5" r="24" stroke="#fff" stroke-opacity=".6"/><path fill="#fff" d="M1663 775l4.232 4.232-4.232 4.232-4.232-4.232z"/><circle cx="1044.5" cy="256.5" r="24.5" fill="#fff" fill-opacity=".1"/><circle cx="1044.5" cy="256.5" r="24" stroke="#fff" stroke-opacity=".6"/><path fill="#fff" d="M1044 252l4.232 4.232-4.232 4.232-4.232-4.232z"/><circle cx="1011.5" cy="528.5" r="24.5" fill="#fff" fill-opacity=".1"/><circle cx="1011.5" cy="528.5" r="24" stroke="#fff" stroke-opacity=".6"/><path fill="#fff" d="M1011 524l4.232 4.232-4.232 4.232-4.232-4.232z"/><circle cx="803.5" cy="251.5" r="24.5" fill="#fff" fill-opacity=".1"/><circle cx="803.5" cy="251.5" r="24" stroke="#fff" stroke-opacity=".6"/><path fill="#fff" d="M803 247l4.232 4.232-4.232 4.232-4.232-4.232z"/><path fill="url(#pattern0)" fill-opacity=".5" d="M1433 495h176v177h-176z"/><circle cx="1521.5" cy="583.5" r="24.5" fill="#fff" fill-opacity=".1"/><circle cx="1521.5" cy="583.5" r="24" stroke="#fff" stroke-opacity=".6"/><path fill="#fff" d="M1521 579l4.232 4.232-4.232 4.232-4.232-4.232z"/><circle cx="1321.5" cy="403.5" r="24.5" fill="#fff" fill-opacity=".1"/><circle cx="1321.5" cy="403.5" r="24" stroke="#fff" stroke-opacity=".6"/><path fill="#fff" d="M1321 399l4.232 4.232-4.232 4.232-4.232-4.232z"/><circle cx="1241.5" cy="675.5" r="24.5" fill="#fff" fill-opacity=".1"/><circle cx="1241.5" cy="675.5" r="24" stroke="#fff" stroke-opacity=".6"/><path fill="#fff" d="M1241 671l4.232 4.232-4.232 4.232-4.232-4.232z"/></svg>

<svg width="1903" height="960" viewBox="0 0 1903 960" fill="none" xmlns="http://www.w3.org/2000/svg" xmlns:xlink="http://www.w3.org/1999/xlink">
	<g id="netural" class="scene-dot">
		<path d="M677.5 634L766 694.5H866" stroke="#FF6600"/>

		<g class="waves">
			<circle cx="677.5" cy="633.5" r="24" stroke="#FF6600"/>
			<circle cx="677.5" cy="633.5" r="24" stroke="#FF6600"/>
			<circle cx="677.5" cy="633.5" r="24" stroke="#FF6600"/>
		</g>

		<g class="active-circle">
			<circle cx="677.5" cy="633.5" r="29.5" fill="#FF6600"/>
			<g clip-path="url(#clip0)">
				<path d="M670.556 624.439C671.424 624.439 672.273 624.69 672.994 625.16C673.716 625.63 674.279 626.299 674.611 627.081C674.943 627.863 675.03 628.724 674.86 629.554C674.691 630.385 674.273 631.148 673.659 631.746C673.046 632.345 672.264 632.753 671.412 632.918C670.561 633.083 669.678 632.998 668.876 632.674C668.075 632.35 667.389 631.802 666.907 631.098C666.425 630.394 666.167 629.566 666.167 628.719C666.169 627.584 666.632 626.497 667.455 625.694C668.277 624.892 669.393 624.44 670.556 624.439V624.439Z" stroke="white" stroke-width="1.42" stroke-miterlimit="22.93"/>
				<path d="M670.556 625.711C671.166 625.711 671.762 625.887 672.269 626.218C672.777 626.549 673.172 627.018 673.405 627.568C673.639 628.118 673.7 628.723 673.581 629.306C673.462 629.89 673.168 630.426 672.737 630.846C672.305 631.267 671.756 631.554 671.158 631.67C670.559 631.786 669.939 631.726 669.376 631.499C668.812 631.271 668.33 630.885 667.992 630.391C667.653 629.896 667.472 629.314 667.472 628.719C667.473 627.922 667.799 627.158 668.377 626.594C668.955 626.03 669.739 625.713 670.556 625.711V625.711Z" stroke="white" stroke-width="0.71" stroke-miterlimit="22.93"/>
				<path d="M670.556 627.212C670.862 627.211 671.161 627.298 671.416 627.463C671.671 627.628 671.87 627.863 671.988 628.138C672.106 628.413 672.138 628.717 672.079 629.009C672.02 629.302 671.873 629.571 671.657 629.783C671.441 629.994 671.166 630.138 670.866 630.197C670.566 630.256 670.255 630.226 669.972 630.112C669.69 629.998 669.448 629.805 669.278 629.557C669.108 629.309 669.017 629.018 669.017 628.719C669.017 628.321 669.179 627.938 669.467 627.656C669.756 627.373 670.147 627.214 670.556 627.212V627.212Z" stroke="white" stroke-width="0.71" stroke-miterlimit="22.93"/>
				<path d="M666.838 632.963C667.708 632.962 668.559 633.212 669.283 633.683C670.006 634.153 670.571 634.823 670.904 635.607C671.238 636.39 671.325 637.253 671.156 638.085C670.986 638.917 670.568 639.681 669.953 640.281C669.338 640.881 668.554 641.29 667.701 641.455C666.848 641.62 665.963 641.535 665.16 641.209C664.357 640.884 663.67 640.334 663.188 639.628C662.705 638.922 662.448 638.092 662.45 637.244C662.45 636.108 662.912 635.02 663.735 634.217C664.558 633.414 665.675 632.963 666.838 632.963V632.963Z" stroke="white" stroke-width="1.42" stroke-miterlimit="22.93"/>
				<path d="M666.838 634.235C667.45 634.234 668.049 634.41 668.558 634.741C669.067 635.072 669.464 635.542 669.699 636.093C669.934 636.645 669.995 637.251 669.876 637.836C669.757 638.422 669.463 638.959 669.03 639.381C668.597 639.803 668.046 640.091 667.446 640.207C666.846 640.323 666.224 640.263 665.659 640.034C665.094 639.805 664.612 639.417 664.272 638.921C663.933 638.424 663.753 637.84 663.754 637.244C663.754 636.446 664.079 635.681 664.658 635.117C665.236 634.552 666.02 634.235 666.838 634.235V634.235Z" stroke="white" stroke-width="0.71" stroke-miterlimit="22.93"/>
				<path d="M666.838 635.736C667.144 635.736 667.443 635.825 667.697 635.99C667.951 636.156 668.149 636.391 668.266 636.667C668.383 636.942 668.414 637.245 668.354 637.538C668.294 637.83 668.147 638.099 667.931 638.309C667.715 638.52 667.44 638.664 667.14 638.722C666.84 638.78 666.529 638.75 666.247 638.636C665.965 638.522 665.723 638.329 665.554 638.081C665.384 637.833 665.293 637.542 665.293 637.244C665.292 637.046 665.332 636.849 665.409 636.666C665.487 636.483 665.6 636.316 665.744 636.176C665.888 636.036 666.058 635.925 666.246 635.85C666.434 635.774 666.635 635.736 666.838 635.736V635.736Z" stroke="white" stroke-width="0.71" stroke-miterlimit="22.93"/>
				<path d="M676.325 632.963C677.195 632.962 678.046 633.212 678.769 633.683C679.493 634.153 680.058 634.823 680.391 635.607C680.724 636.39 680.812 637.253 680.643 638.085C680.473 638.917 680.054 639.681 679.439 640.281C678.824 640.881 678.041 641.29 677.188 641.455C676.334 641.62 675.45 641.535 674.647 641.209C673.843 640.884 673.157 640.334 672.675 639.628C672.192 638.922 671.935 638.092 671.937 637.244C671.937 636.108 672.399 635.02 673.222 634.217C674.045 633.414 675.161 632.963 676.325 632.963V632.963Z" stroke="white" stroke-width="1.42" stroke-miterlimit="22.93"/>
				<path d="M676.325 634.235C676.937 634.234 677.535 634.41 678.045 634.741C678.554 635.072 678.951 635.542 679.186 636.093C679.42 636.645 679.482 637.251 679.363 637.836C679.244 638.422 678.949 638.959 678.517 639.381C678.084 639.803 677.533 640.091 676.933 640.207C676.333 640.323 675.711 640.263 675.146 640.034C674.581 639.805 674.098 639.417 673.759 638.921C673.42 638.424 673.24 637.84 673.241 637.244C673.241 636.446 673.566 635.681 674.144 635.117C674.723 634.552 675.507 634.235 676.325 634.235V634.235Z" stroke="white" stroke-width="0.71" stroke-miterlimit="22.93"/>
				<path d="M676.325 635.736C676.631 635.736 676.93 635.825 677.184 635.991C677.439 636.157 677.637 636.393 677.754 636.668C677.87 636.944 677.901 637.247 677.84 637.54C677.78 637.833 677.632 638.101 677.416 638.312C677.199 638.522 676.923 638.665 676.623 638.723C676.323 638.78 676.012 638.749 675.73 638.634C675.447 638.519 675.206 638.325 675.037 638.077C674.868 637.828 674.779 637.536 674.78 637.237C674.78 637.04 674.82 636.844 674.898 636.662C674.976 636.479 675.089 636.313 675.233 636.174C675.377 636.034 675.547 635.924 675.734 635.849C675.922 635.774 676.123 635.736 676.325 635.736V635.736Z" stroke="white" stroke-width="0.71" stroke-miterlimit="22.93"/>
				<path d="M670.556 624.439H683.431" stroke="white" stroke-width="1.42" stroke-miterlimit="22.93"/>
				<path d="M668.954 633H688.155" stroke="white" stroke-width="1.42" stroke-miterlimit="22.93"/>
				<path d="M666.839 641.524H688.155" stroke="white" stroke-width="1.42" stroke-miterlimit="22.93"/>
				<path d="M688.155 633C689.319 633 690.436 633.451 691.259 634.254C692.082 635.057 692.544 636.145 692.544 637.281C692.544 638.416 692.082 639.505 691.259 640.308C690.436 641.11 689.319 641.561 688.155 641.561" stroke="white" stroke-width="1.42" stroke-miterlimit="22.93"/>
				<path d="M683.431 624.439C684.595 624.439 685.711 624.89 686.534 625.692C687.357 626.495 687.82 627.584 687.82 628.719C687.82 629.855 687.357 630.943 686.534 631.746C685.711 632.549 684.595 633 683.431 633" stroke="white" stroke-width="1.42" stroke-miterlimit="22.93"/>
				<path d="M673.855 625.896H686.534" stroke="white" stroke-width="0.71" stroke-miterlimit="22.93"/>
				<path d="M673.919 631.301H686.724" stroke="white" stroke-width="0.71" stroke-miterlimit="22.93"/>
				<path d="M679.391 634.186H691.227" stroke="white" stroke-width="0.71" stroke-miterlimit="22.93"/>
				<path d="M679.929 639.535H691.936" stroke="white" stroke-width="0.71" stroke-miterlimit="22.93"/>
			</g>
		</g>

		<g class="base-circle">
			<foreignObject x="653" y="610" width="49" height="49" class="highlight">
				<div></div>
			</foreignObject>
			<circle cx="677.5" cy="633.5" r="24.5" fill="white" fill-opacity="0.1"/>
			<circle cx="677.5" cy="633.5" r="24" stroke="white" stroke-opacity="0.6"/>

			<rect x="675" y="630" width="6" height="6" fill="white"/>

			
		</g>
		<foreignObject class="text" width="200" height="200" x="775" y="720">
			<div class="text__title">
				Натуральная
			</div>
			<div class="text__text">
				100% аналог массива, полная имитация фактуры и текстуры натуральных материалов
			</div>
		</foreignObject>
	</g>

	<circle cx="1541.5" cy="236.5" r="24.5" fill="white" fill-opacity="0.1"/>
	<circle cx="1541.5" cy="236.5" r="24" stroke="white" stroke-opacity="0.6"/>
	<rect x="1541" y="232" width="5.98529" height="5.98529" transform="rotate(45 1541 232)" fill="white"/>
	<circle cx="1663.5" cy="779.5" r="24.5" fill="white" fill-opacity="0.1"/>
	<circle cx="1663.5" cy="779.5" r="24" stroke="white" stroke-opacity="0.6"/>
	<rect x="1663" y="775" width="5.98529" height="5.98529" transform="rotate(45 1663 775)" fill="white"/>
	<circle cx="1044.5" cy="256.5" r="24.5" fill="white" fill-opacity="0.1"/>
	<circle cx="1044.5" cy="256.5" r="24" stroke="white" stroke-opacity="0.6"/>
	<rect x="1044" y="252" width="5.98529" height="5.98529" transform="rotate(45 1044 252)" fill="white"/>

	<circle cx="1011.5" cy="528.5" r="24.5" fill="white" fill-opacity="0.1"/>
	<circle cx="1011.5" cy="528.5" r="24" stroke="white" stroke-opacity="0.6"/>

	<rect x="1011" y="524" width="5.98529" height="5.98529" transform="rotate(45 1011 524)" fill="white"/>
	<circle cx="803.5" cy="251.5" r="24.5" fill="white" fill-opacity="0.1"/>
	<circle cx="803.5" cy="251.5" r="24" stroke="white" stroke-opacity="0.6"/>
	<rect x="803" y="247" width="5.98529" height="5.98529" transform="rotate(45 803 247)" fill="white"/>
	<rect x="1433" y="495" width="176" height="177" fill="url(#pattern0)" fill-opacity="0.5"/>
	<circle cx="1521.5" cy="583.5" r="24.5" fill="white" fill-opacity="0.1"/>
	<circle cx="1521.5" cy="583.5" r="24" stroke="white" stroke-opacity="0.6"/>
	<rect x="1521" y="579" width="5.98529" height="5.98529" transform="rotate(45 1521 579)" fill="white"/>
	<circle cx="1321.5" cy="403.5" r="24.5" fill="white" fill-opacity="0.1"/>
	<circle cx="1321.5" cy="403.5" r="24" stroke="white" stroke-opacity="0.6"/>
	<rect x="1321" y="399" width="5.98529" height="5.98529" transform="rotate(45 1321 399)" fill="white"/>
	<circle cx="1241.5" cy="675.5" r="24.5" fill="white" fill-opacity="0.1"/>
	<circle cx="1241.5" cy="675.5" r="24" stroke="white" stroke-opacity="0.6"/>
	<rect x="1241" y="671" width="5.98529" height="5.98529" transform="rotate(45 1241 671)" fill="white"/>
</svg>
